X: 975
T: All The Way To Connickmore
R: polka
M: 2/4
K: Dmixolydian
|:de gd|BA A2|Bc eB|BA A2|
de gd|BA A2|cA GF|D2 D2:|
|:A>B AG|AB c2|EF GF|EF G2|
A>B AG|AB cd|cA GF|D2 D2:|

